symbols/web/volunteer_activism/materialsymbolsrounded/volunteer_activism_fill1_48px.svg

<svg xmlns="http://www.w3.org/2000/svg" height="48" width="48"><path d="M2 40.3V26.6q0-1.25.875-2.125T5 23.6h1.7q1.25 0 2.125.875T9.7 26.6v13.7q0 1.25-.875 2.125T6.7 43.3H5q-1.25 0-2.125-.875T2 40.3Zm25.45 4.35-14.7-4.2V23.6h4.15q.25 0 .525.05t.525.15l12.25 4.6q1.5.55 2.3 1.675.8 1.125.8 2.275 0 .4-.25.65t-.65.25h-3.65q-1.3 0-2.3-.15-1-.15-2.2-.55l-2.95-.95q-.3-.1-.575.025-.275.125-.375.425-.1.3.025.575.125.275.425.375l3.05 1.05q.8.25 2.025.475 1.225.225 3.475.225h9.75q2.85 0 3.875 1.325T44 40.1l-14.85 4.55q-.4.1-.85.1-.45 0-.85-.1ZM32.3 24.5q-.35 0-.65-.1-.3-.1-.55-.35-4.35-3.9-7.425-7.45Q20.6 13.05 20.6 10q0-2.6 1.75-4.35Q24.1 3.9 26.7 3.9q1.5 0 2.975.825T32.3 6.95q1.15-1.4 2.625-2.225Q36.4 3.9 37.9 3.9q2.6 0 4.35 1.75Q44 7.4 44 10q0 3.05-3.075 6.6T33.5 24.05q-.25.25-.55.35-.3.1-.65.1Z"/></svg>

<svg xmlns="http://www.w3.org/2000/svg" height="48" width="48"><path d="M2 40.3V26.6Q2 25.35 2.875 24.475Q3.75 23.6 5 23.6H6.7Q7.95 23.6 8.825 24.475Q9.7 25.35 9.7 26.6V40.3Q9.7 41.55 8.825 42.425Q7.95 43.3 6.7 43.3H5Q3.75 43.3 2.875 42.425Q2 41.55 2 40.3ZM27.45 44.65 12.75 40.45V23.6H16.9Q17.15 23.6 17.425 23.65Q17.7 23.7 17.95 23.8L30.2 28.4Q31.7 28.95 32.5 30.075Q33.3 31.2 33.3 32.35Q33.3 32.75 33.05 33Q32.8 33.25 32.4 33.25H28.75Q27.45 33.25 26.45 33.1Q25.45 32.95 24.25 32.55L21.3 31.6Q21 31.5 20.725 31.625Q20.45 31.75 20.35 32.05Q20.25 32.35 20.375 32.625Q20.5 32.9 20.8 33L23.85 34.05Q24.65 34.3 25.875 34.525Q27.1 34.75 29.35 34.75H39.1Q41.95 34.75 42.975 36.075Q44 37.4 44 40.1L29.15 44.65Q28.75 44.75 28.3 44.75Q27.85 44.75 27.45 44.65ZM32.3 24.5Q31.95 24.5 31.65 24.4Q31.35 24.3 31.1 24.05Q26.75 20.15 23.675 16.6Q20.6 13.05 20.6 10Q20.6 7.4 22.35 5.65Q24.1 3.9 26.7 3.9Q28.2 3.9 29.675 4.725Q31.15 5.55 32.3 6.95Q33.45 5.55 34.925 4.725Q36.4 3.9 37.9 3.9Q40.5 3.9 42.25 5.65Q44 7.4 44 10Q44 13.05 40.925 16.6Q37.85 20.15 33.5 24.05Q33.25 24.3 32.95 24.4Q32.65 24.5 32.3 24.5Z"/></svg>
